public/images/icon-4.svg

<svg fill="none" height="32" viewBox="0 0 32 32" width="32" xmlns="http://www.w3.org/2000/svg"><g fill="#5e6b7e"><path clip-rule="evenodd" d="m22.3833 8c-.5553 2.4471-2.4817 4.3734-4.9288 4.9287v6.1426c2.4471.5553 4.3735 2.4816 4.9288 4.9287h9.0167c.3314 0 .6.2686.6.6v1.7091c0 .3314-.2686.6-.6.6h-9.0167c-.6615 2.9149-3.2683 5.0909-6.3833 5.0909s-5.7218-2.176-6.38326-5.0909h-9.016739c-.331371 0-.600001-.2686-.600001-.6v-1.7091c0-.3314.268629-.6.6-.6h9.01674c.55526-2.4471 2.48166-4.3734 4.92876-4.9287v-6.1426c-2.4471-.5553-4.3735-2.4816-4.92876-4.9287h-9.01674c-.331371 0-.6-.26863-.6-.6v-1.70909c0-.33137.26863-.6.600001-.6h9.016739c.66146-2.91489 3.26826-5.09091 6.38326-5.09091s5.7218 2.17602 6.3833 5.09091h9.0167c.3314 0 .6.26863.6.6v1.70909c0 .33137-.2686.6-.6.6zm-6.3833 2.1818c2.0083 0 3.6364-1.62804 3.6364-3.63635 0-2.0083-1.6281-3.63636-3.6364-3.63636s-3.6364 1.62806-3.6364 3.63636c0 2.00831 1.6281 3.63635 3.6364 3.63635zm0 18.9091c2.0083 0 3.6364-1.628 3.6364-3.6364 0-2.0083-1.6281-3.6363-3.6364-3.6363s-3.6364 1.628-3.6364 3.6363c0 2.0084 1.6281 3.6364 3.6364 3.6364z" fill-rule="evenodd"/><path d="m22.5455 15.1455c0-.3314.2686-.6.6-.6h8.2545c.3314 0 .6.2686.6.6v1.709c0 .3314-.2686.6-.6.6h-8.2545c-.3314 0-.6-.2686-.6-.6z"/><path d="m9.45455 15.1455c0-.3314-.26863-.6-.6-.6h-8.25455c-.331371 0-.6.2686-.6.6v1.709c0 .3314.268629.6.599999.6h8.254551c.33137 0 .6-.2686.6-.6z"/></g></svg>

<svg width="32" height="32" viewBox="0 0 32 32" fill="none" xmlns="http://www.w3.org/2000/svg">
<path fill-rule="evenodd" clip-rule="evenodd" d="M22.3833 8C21.828 10.4471 19.9016 12.3734 17.4545 12.9287V19.0713C19.9016 19.6266 21.828 21.5529 22.3833 24H31.4C31.7314 24 32 24.2686 32 24.6V26.3091C32 26.6405 31.7314 26.9091 31.4 26.9091H22.3833C21.7218 29.824 19.115 32 16 32C12.885 32 10.2782 29.824 9.61674 26.9091H0.600001C0.26863 26.9091 0 26.6405 0 26.3091V24.6C0 24.2686 0.268629 24 0.6 24H9.61674C10.172 21.5529 12.0984 19.6266 14.5455 19.0713V12.9287C12.0984 12.3734 10.172 10.4471 9.61674 8L0.6 8C0.268629 8 0 7.73137 0 7.4V5.69091C0 5.35954 0.26863 5.09091 0.600001 5.09091H9.61674C10.2782 2.17602 12.885 0 16 0C19.115 0 21.7218 2.17602 22.3833 5.09091H31.4C31.7314 5.09091 32 5.35954 32 5.69091V7.4C32 7.73137 31.7314 8 31.4 8L22.3833 8ZM16 10.1818C18.0083 10.1818 19.6364 8.55376 19.6364 6.54545C19.6364 4.53715 18.0083 2.90909 16 2.90909C13.9917 2.90909 12.3636 4.53715 12.3636 6.54545C12.3636 8.55376 13.9917 10.1818 16 10.1818ZM16 29.0909C18.0083 29.0909 19.6364 27.4629 19.6364 25.4545C19.6364 23.4462 18.0083 21.8182 16 21.8182C13.9917 21.8182 12.3636 23.4462 12.3636 25.4545C12.3636 27.4629 13.9917 29.0909 16 29.0909Z" fill="#5E6B7E"/>
<path d="M22.5455 15.1455C22.5455 14.8141 22.8141 14.5455 23.1455 14.5455H31.4C31.7314 14.5455 32 14.8141 32 15.1455V16.8545C32 17.1859 31.7314 17.4545 31.4 17.4545H23.1455C22.8141 17.4545 22.5455 17.1859 22.5455 16.8545V15.1455Z" fill="#5E6B7E"/>
<path d="M9.45455 15.1455C9.45455 14.8141 9.18592 14.5455 8.85455 14.5455H0.6C0.268629 14.5455 0 14.8141 0 15.1455V16.8545C0 17.1859 0.268629 17.4545 0.599999 17.4545H8.85455C9.18592 17.4545 9.45455 17.1859 9.45455 16.8545V15.1455Z" fill="#5E6B7E"/>
</svg>
